X:72
T: UEBERALL BIN ICH ZU HAUSE
N: B0558
O: Europa, Mitteleuropa, Deutschland
R: Studenten - Lied
M: 3/4
L: 1/8
K: A
 | AAAAGA | B2B2z2 |
BBBBAB | c2z4 |
AAAAcA | G2F2
FF | EAc2B2 | A2z4 |
BBeeBB | c2z2
AA | ffeeGG | A2z4 |
BBeeBB | c2z2
AA | ffeeGG | A2z4

@@@ Tune index: 2290
